X:2821
L:1/16
M:2/4
K:G
 BA |"G" GBDG B2BA |"G" G2ed ^cdBG |"D7" FADF ADFA |"D7" GABc d2BA |"G" GBDG B2BA |"G" G2ed ^cdBG | 
"D7" FADF ADFA |1"G" G2B2 G2 :|2"G" G2B2"G7" G3 |: d |"C" e2f2 g2fe |"G" ed^cd B2AG | 
"D7" FADF ADFA |"G" GABc"G7" d2d2 |"C" e2f2 g2fe |"G" ed^cd B2AG |"D7" FADF ADFA |1 
"G" G2B2"G7" G3 :|2"G" G2B2 G2 |]

